X:102
L:1/16
M:2/4
K:G
 dc |: TB2G2 (AG)FG | E2e2 e2(3(EFE) | D2F2 F2(3(EFE) | D2d2 d2dc | TB2G2 (AG)FG | E2e2 e2(3(efe) | 
 d2F2 d2>F2 |1 [GB]2[GB]2 [GB]2 dc :|2 [GB]2[GB]2 [GB]4 |]:[K:D] (AF)(Ad) (fe)(dc) | 
 (BA)(GF) G2E2 | (ge)(cA) G2E2 | (af)(dA) F2D2 | (AF)(Ad) (fe)(dc) | (BA)(GF) G2E2 | 
 (ge)(cA) a2>c2 | [dD]2[dD]2 [dD]4 ::[K:G] dcde dcBA | GFGA B2D2 | TF2D2 F2>A2 | G2B2 d4 | 
 dcde dcBA | GFGA B2D2 | TF2D2 d2>F2 | G2G2 G4 :|

